resources/images/icons/eye.svg

<svg fill="none" height="24" viewBox="0 0 24 24" width="24" xmlns="http://www.w3.org/2000/svg"><g fill="#0d0d0d"><path d="m15 12c0 1.6569-1.3431 3-3 3s-3-1.3431-3-3 1.3431-3 3-3 3 1.3431 3 3z" xmlns="http://www.w3.org/2000/svg"/><path d="m21.8944 11.5528c-2.1582-4.31645-5.9913-6.5528-9.8944-6.5528-3.90313 0-7.73621 2.23635-9.89443 6.5528-.14076.2815-.14076.6129 0 .8944 2.15822 4.3165 5.9913 6.5528 9.89443 6.5528 3.9031 0 7.7362-2.2363 9.8944-6.5528.1408-.2815.1408-.6129 0-.8944zm-9.8944 5.4472c-2.96879 0-6.00194-1.6208-7.87034-5 1.8684-3.37922 4.90155-5 7.87034-5 2.9688 0 6.0019 1.62078 7.8703 5-1.8684 3.3792-4.9015 5-7.8703 5z" xmlns="http://www.w3.org/2000/svg"/></g></svg>

<svg fill="none" viewBox="0 0 24 24" height="24" width="24" xmlns="http://www.w3.org/2000/svg">
<path xmlns="http://www.w3.org/2000/svg" d="M15 12C15 13.6569 13.6569 15 12 15C10.3431 15 9 13.6569 9 12C9 10.3431 10.3431 9 12 9C13.6569 9 15 10.3431 15 12Z" fill="#0D0D0D"></path>
<path xmlns="http://www.w3.org/2000/svg" d="M21.8944 11.5528C19.7362 7.23635 15.9031 5 12 5C8.09687 5 4.26379 7.23635 2.10557 11.5528C1.96481 11.8343 1.96481 12.1657 2.10557 12.4472C4.26379 16.7637 8.09687 19 12 19C15.9031 19 19.7362 16.7637 21.8944 12.4472C22.0352 12.1657 22.0352 11.8343 21.8944 11.5528ZM12 17C9.03121 17 5.99806 15.3792 4.12966 12C5.99806 8.62078 9.03121 7 12 7C14.9688 7 18.0019 8.62078 19.8703 12C18.0019 15.3792 14.9688 17 12 17Z" fill="#0D0D0D"></path>
</svg>
